X:1
T:Title
%%score { ( 1 4 ) | ( 2 3 ) }
L:1/8
Q:1/4=100
M:4/4
K:Ab
V:1 treble nm="Grand Piano"
V:4 treble 
V:2 bass 
V:3 bass 
V:1
 [CE]>[CE] [Ec]>[DG] [DB]2 [CA]2 | [CE]>[CE] [CA]>[CA] [DG]4 | G>G G>F E2 B2 | B>=A B>E c4 | %4
w: H.~R.~Albright * * * * *||||
 c>d e>f e2 [Ec]2 | [=Ec]>[Ed] [Ec]>[EB] A4 | A>F B>A G2 [=DF]2 | z4 d4 | c>d c>B [EA]2 [Ec]2 | %9
w: |||||
 [CE]8[K:bass] | C>[K:treble][CE] [CA]>[Ec] e2 c2 | B8 | [Ec]>[Fd] [Ec]>[DB] [CA]2 [Ec]2 | %13
w: ||||
 [Ee]>[Ee] [_GA]>[GA] [Fd]4 | [Ec]>[EB] [Ee]>[Fd] [Ec]2 [DB]2 | [CA]6 z2 |] %16
w: |||
V:2
 [A,,A,]>[A,,A,] [A,,A,]>[A,,E,] [A,,F,]2 [A,,E,]2 | [A,,A,]>[A,,A,] [A,,E,]>[A,,E,] [B,,E,]4 | %2
 [E,B,D]>[E,B,D] [E,B,D]>[E,A,D] [E,G,D]2 [E,G,D]2 | %3
 [E,G,D]>[E,_G,C] [E,=G,D]>[E,G,D][K:treble] [A,E]4 | %4
 [A,E]>[A,B,E] [A,CA]>[A,DA] [A,CA]2[K:bass] [A,,A,]2 | [C,G,]>[C,G,] [C,G,]>[C,C] [F,CF]4 | %6
 [F,CF]>[B,=D] [G,B,E]>[A,CE] [B,E]2 [B,,A,]2 | E,4- [E,B,]4 | %8
 [A,E]>[A,F][K:bass] [A,E]>[E,G,E] [C,A,]2 [E,A,]2 | A,>F, E,>C, A,,4 | %10
 [A,,E,A,]>[A,,A,] [A,,A,]>[A,,A,][K:treble] [A,CA]2 [A,E]2 | %11
 [G,B,E]>[G,B,] [F,A,]>[B,,A,] [E,G,]4 | [A,,A,]>[A,,A,] [A,,A,]>[A,,A,] [A,,E,]2 [A,,A,]2 | %13
 [A,,C]>[A,,C] [C,A,]>[C,A,] [D,A,]4 | [E,A,]>[D,A,] [C,A,]>[D,A,] [E,A,]2 [E,G,]2 | [A,,A,]6 z2 |] %16
V:3
 x8 | x8 | x8 | x4[K:treble] x4 | x6[K:bass] x2 | x8 | z z/ A,/- A,/ z/ z z4 | G,4 z4 | %8
 x2[K:bass] x6 | x8 | x4[K:treble] x4 | x8 | x8 | x8 | x8 | x8 |] %16
V:4
 x8 | x8 | x8 | x8 | x8 | x8 | x8 | E8 | x8 | z z/[K:bass] A,/ A,>A, A,4 | x3/2[K:treble] x13/2 | %11
 z z/ E/ =D>F E4 | x8 | x8 | x8 | x8 |] %16

